themes/etch/static/img/funders/sparkgeo.svg

<?xml version="1.0" encoding="UTF-8"?>
<svg width="110px" height="41px" viewBox="0 0 110 41" version="1.1" xmlns="http://www.w3.org/2000/svg" xmlns:xlink="http://www.w3.org/1999/xlink">
    <title>Untitled</title>
    <g id="Page-1" stroke="none" stroke-width="1" fill="none" fill-rule="evenodd">
        <path d="M94.7782233,28.2832132 C93.2462705,27.4714231 92.053394,26.3400345 91.1939934,24.8895492 C90.3345928,23.4395656 89.9038742,21.798425 89.9038742,19.9641206 C89.9038742,18.131823 90.3345928,16.4956996 91.1939934,15.0572557 C92.053394,13.6183101 93.2462705,12.4934439 94.7782233,11.6806503 C96.3076306,10.8693619 98.0264318,10.4624634 99.9346269,10.4624634 C101.866242,10.4624634 103.596244,10.8693619 105.125142,11.6806503 C106.657604,12.4934439 107.85048,13.6183101 108.712426,15.0572557 C109.569281,16.4956996 110,18.131823 110,19.9641206 C110,21.798425 109.569281,23.4395656 108.712426,24.8895492 C107.85048,26.3400345 106.657604,27.4714231 105.125142,28.2832132 C103.596244,29.0960068 101.866242,29.5008984 99.9346269,29.5008984 C98.0264318,29.5008984 96.3076306,29.0960068 94.7782233,28.2832132 Z M103.961285,24.1760971 C105.018735,23.1084275 105.550769,21.7046026 105.550769,19.9641206 C105.550769,18.2236385 105.018735,16.8203153 103.961285,15.7536492 C102.900781,14.6859796 101.558222,14.1521448 99.9346269,14.1521448 C98.3105227,14.1521448 96.9740733,14.6859796 95.9252788,15.7536492 C94.8785207,16.8203153 94.3531052,18.2236385 94.3531052,19.9641206 C94.3531052,21.7046026 94.8785207,23.1084275 95.9252788,24.1760971 C96.9740733,25.2437667 98.3105227,25.7760963 99.9346269,25.7760963 C101.558222,25.7760963 102.900781,25.2437667 103.961285,24.1760971 Z M85.6052511,21.3564058 L70.9932837,21.3564058 C71.2491402,22.7256118 71.9186899,23.81034 72.9999222,24.6105904 C74.0811545,25.4108409 75.4232699,25.8117187 77.0267711,25.8117187 C79.0731201,25.8117187 80.758053,25.1389062 82.0835805,23.7932813 L84.4189619,26.4729915 C83.5815221,27.4714231 82.5234123,28.2245114 81.2466434,28.7347652 C79.9668584,29.2460224 78.5252153,29.5008984 76.9217142,29.5008984 C74.8758678,29.5008984 73.073814,29.0960068 71.5185686,28.2827115 C69.9608099,27.4714231 68.7574301,26.3400345 67.9094343,24.8895492 C67.0604332,23.4395656 66.634676,21.7979233 66.634676,19.9641206 C66.634676,18.1538988 67.0493746,16.5242979 67.8717344,15.0738126 C68.6981156,13.6248325 69.8441917,12.4934439 71.3084547,11.6806503 C72.7727177,10.8688602 74.4219614,10.4624634 76.2607097,10.4624634 C78.0738222,10.4624634 79.694414,10.8633413 81.1244958,11.6635917 C82.5545776,12.4638422 83.6699911,13.5897118 84.4732497,15.0396953 C85.2734923,16.4901807 85.6731109,18.1669437 85.6731109,20.068981 C85.6731109,20.3705173 85.6509937,20.7994917 85.6052511,21.3564058 Z M72.7189325,15.178673 C71.7543185,16.0030062 71.1697191,17.0992741 70.9596052,18.4669749 L81.5246171,18.4669749 C81.3401391,17.1218517 80.770117,16.0311028 79.8160589,15.1957316 C78.8630062,14.3598588 77.6762142,13.9439292 76.2607097,13.9439292 C74.8648092,13.9439292 73.6840492,14.355845 72.7189325,15.178673 Z M62.4039127,10.6759357 L62.4039127,26.8411881 C62.4039127,33.5503903 59.04152,36.9047342 52.3202676,36.9047342 C50.5224827,36.9047342 48.8185743,36.6722294 47.2085424,36.2092775 C45.5990152,35.744268 44.2680891,35.0724733 43.2167736,34.1923503 L45.1775805,30.8385208 C45.9952142,31.5283192 47.0263413,32.0812895 48.2770181,32.4979463 C49.5251714,32.9130598 50.7904849,33.122417 52.0754821,33.122417 C54.1296608,33.122417 55.6337032,32.6460909 56.5916469,31.6949819 C57.5485813,30.7423297 58.0275531,29.291747 58.0275531,27.3406618 L58.0275531,26.3417144 C57.2810838,27.1750279 56.3690689,27.8051569 55.2975648,28.2336446 C54.2235373,28.661618 53.0440249,28.8750903 51.7590276,28.8750903 C49.9869831,28.8750903 48.382503,28.4887826 46.946092,27.7151385 C45.5106905,26.9425232 44.3796305,25.8551005 43.5503883,24.4513274 C42.7206415,23.0470399 42.3077869,21.4411111 42.3077869,19.6330267 C42.3077869,17.8254566 42.7206415,16.2257005 43.5503883,14.8347872 C44.3796305,13.4423307 45.5106905,12.3662246 46.946092,11.6038971 C48.382503,10.8431128 49.9869831,10.4624634 51.7590276,10.4624634 C53.112161,10.4624634 54.3461823,10.6893099 55.4545303,11.1409452 C56.5628783,11.5925805 57.4890252,12.2818645 58.2385228,13.2098259 L58.2385228,10.6759357 L62.4039127,10.6759357 Z M56.5033223,23.5768627 C57.5657415,22.5650555 58.0987176,21.2507864 58.0987176,19.6330267 C58.0987176,18.040472 57.5657415,16.7426635 56.5033223,15.7432017 C55.442922,14.7447687 54.0812084,14.2452951 52.4257524,14.2452951 C50.7445561,14.2452951 49.3742624,14.7447687 48.3118433,15.7432017 C47.2484146,16.7426635 46.7184668,18.040472 46.7184668,19.6330267 C46.7184668,21.2507864 47.2484146,22.5650555 48.3118433,23.5768627 C49.3742624,24.587641 50.7445561,25.092773 52.4257524,25.092773 C54.0812084,25.092773 55.442922,24.587641 56.5033223,23.5768627 Z M32.6183258,16.49119 L21.3944413,20.8329837 L31.3011537,28.8044469 L29.4798597,31.0943747 L20.878536,24.1740934 L24.4186603,39.4100485 L21.5793884,40.0778582 L18.0172344,24.7434837 L14.0426637,33.0292709 L11.4170288,31.7554857 L15.5765467,23.0832345 L1.04615539,28.7044816 L0,25.9703779 L15.6083105,19.9327803 L5.1944023,11.5532112 L7.01518401,9.26379869 L16.1231911,16.5916706 L13.6343454,5.88095086 L16.4736173,5.21314114 L18.9778326,15.9929091 L26.6492972,0 L29.2744197,1.2737852 L21.3990521,17.6928352 L31.5711458,13.7576016 L32.6183258,16.49119 Z" id="path-1" fill="#000"></path>
    </g>
</svg>

<svg xmlns="http://www.w3.org/2000/svg" width="110" height="41" viewBox="0 0 110 41"><title>Untitled</title><path fill="#000" fill-rule="evenodd" d="M94.778 28.283q-2.297-1.218-3.584-3.393-1.29-2.175-1.29-4.926 0-2.748 1.29-4.907 1.288-2.158 3.584-3.376 2.294-1.218 5.157-1.219 2.896 0 5.19 1.219c1.533.812 2.725 1.937 3.587 3.376Q110 17.216 110 19.964q0 2.751-1.288 4.926c-.862 1.45-2.054 2.581-3.587 3.393q-2.293 1.219-5.19 1.218-2.863 0-5.157-1.218m9.183-4.107q1.589-1.601 1.59-4.212-.001-2.61-1.59-4.21-1.59-1.602-4.026-1.602t-4.01 1.602q-1.57 1.6-1.572 4.21.001 2.61 1.572 4.212 1.575 1.601 4.01 1.6 2.435.001 4.026-1.6m-18.356-2.82H70.993q.385 2.054 2.007 3.255 1.621 1.2 4.027 1.2 3.068 0 5.057-2.018l2.335 2.68q-1.257 1.497-3.172 2.262-1.92.766-4.325.766-3.07 0-5.403-1.218-2.337-1.218-3.61-3.393-1.274-2.175-1.274-4.926.001-2.715 1.237-4.89a8.8 8.8 0 0 1 3.436-3.393q2.196-1.218 4.953-1.219 2.719 0 4.863 1.202a8.5 8.5 0 0 1 3.35 3.376q1.2 2.176 1.2 5.029 0 .452-.069 1.287M72.72 15.18q-1.446 1.236-1.76 3.288h10.566q-.278-2.018-1.709-3.271t-3.555-1.252q-2.094 0-3.542 1.235m-10.315-4.503V26.84q0 10.065-10.084 10.064-2.696 0-5.111-.696-2.414-.697-3.992-2.017l1.96-3.353q1.226 1.034 3.1 1.659 1.871.623 3.798.624 3.081 0 4.517-1.427t1.436-4.354v-1a7.2 7.2 0 0 1-2.73 1.893q-1.611.641-3.539.641-2.658 0-4.813-1.16a8.6 8.6 0 0 1-3.396-3.264q-1.243-2.106-1.242-4.818 0-2.712 1.242-4.798a8.54 8.54 0 0 1 3.396-3.231q2.155-1.141 4.813-1.142 2.031 0 3.696.679a6.84 6.84 0 0 1 2.784 2.069v-2.534zm-5.9 12.9q1.594-1.516 1.595-3.943 0-2.39-1.596-3.89c-1.06-.998-2.422-1.498-4.077-1.498q-2.521 0-4.114 1.498-1.595 1.5-1.594 3.89-.001 2.426 1.594 3.944 1.593 1.516 4.114 1.516c1.655 0 3.017-.505 4.077-1.516m-23.886-7.085-11.224 4.342 9.907 7.971-1.821 2.29-8.601-6.92 3.54 15.236-2.84.668-3.562-15.335-3.974 8.286-2.626-1.274 4.16-8.672-14.53 5.621L0 25.97l15.608-6.037-10.414-8.38 1.821-2.29 9.108 7.329L13.634 5.88l2.84-.668 2.504 10.78L26.649 0l2.625 1.274L21.4 17.693l10.172-3.935z"/></svg>
